fs/draw_text_20_regular.svg

<svg viewBox="0 0 20 20" fill="none" xmlns="http://www.w3.org/2000/svg" height="1em" width="1em">
  <path d="M10.7181 11H6.28129L8.49969 4.78551L10.7181 11ZM11.0751 12L11.3032 12.639L12.0857 11.8565L9.06477 3.39401C8.8752 2.86296 8.12419 2.86297 7.93462 3.39401L4.0288 14.3355C3.93596 14.5956 4.07153 14.8817 4.3316 14.9745C4.59166 15.0673 4.87775 14.9318 4.97059 14.6717L5.92431 12H11.0751ZM15.8087 9.54776L10.9793 14.3772C10.6977 14.6588 10.498 15.0116 10.4014 15.3979L10.0269 16.8958C10.0152 16.9429 10.0073 16.9896 10.0032 17.0358C9.5444 17.0485 9.16363 17.0094 8.89179 16.9476C8.81852 16.931 8.79179 16.8371 8.82623 16.7703C9.00585 16.422 9.05865 15.6968 8.42205 15.4406C7.56245 15.0947 6.44412 15.5653 5.55953 15.9375C5.19351 16.0916 4.86751 16.2288 4.61641 16.2843C4.22933 16.3699 3.76808 16.2189 3.40034 16.0352C3.1878 15.929 2.91844 16.1167 3.04013 16.3208C3.25864 16.6872 3.65443 17.0576 4.36599 17.146C5.18553 17.2479 5.75705 16.9942 6.34075 16.7351C6.74063 16.5576 7.14622 16.3776 7.64119 16.3076C7.72694 16.2955 7.78633 16.3983 7.75252 16.4781C7.60128 16.8348 7.61976 17.3719 8.0688 17.7223C8.58719 18.1269 10.26 18.2334 11.3819 17.9053L12.6034 17.5999C12.9897 17.5033 13.3426 17.3036 13.6241 17.022L18.4536 12.1926C19.1839 11.4622 19.1839 10.2781 18.4536 9.54776C17.7232 8.81741 16.5391 8.81741 15.8087 9.54776Z" fill="#212121"/>
</svg>

<svg viewBox="0 0 20 20" fill="none" xmlns="http://www.w3.org/2000/svg" height="1em" width="1em">
  <path d="M10.718 11H6.281L8.5 4.786 10.718 11Zm.357 1 .228.639.783-.782-3.021-8.463a.6.6 0 0 0-1.13 0L4.029 14.335a.5.5 0 1 0 .942.337L5.924 12h5.151Zm4.734-2.452-4.83 4.83a2.197 2.197 0 0 0-.578 1.02l-.374 1.498a.916.916 0 0 0-.024.14 4.601 4.601 0 0 1-1.111-.088c-.073-.017-.1-.11-.066-.178.18-.348.233-1.073-.404-1.33-.86-.345-1.978.125-2.862.498-.366.154-.692.29-.944.346-.387.086-.848-.065-1.216-.249-.212-.106-.482.082-.36.286.219.366.614.737 1.326.825.82.102 1.391-.152 1.975-.41.4-.178.805-.358 1.3-.428.086-.012.145.09.112.17-.152.357-.133.894.316 1.244.518.405 2.191.511 3.313.183l1.221-.305c.387-.097.74-.296 1.021-.578l4.83-4.83a1.87 1.87 0 0 0-2.645-2.644Z" fill="#212121"/>
</svg>
